X: 55
T:Limber Elbow (#251)
M:4/4
L:1/8
S:Patrick Stack, Chicago
R:Reel
K:A
e2 cA eAcA|e2 cA BEEE|e2 cA eAcA|(3Bcd cA BAFB|
a2 ga fgeg|fedf ecAc|defd cdec|(3Bcd cA BAFB||
A2 cA BAdB|A2 cA BAFB|1A2 cA BAcd|efed cBAG:|2d2 cA BFAF|EFAB cA A2||

